X:26
T: Die zehnte Tochter
N: Q2094B
O: Suedosteuropa, Jugoslawien, Slowenien, Ribnica / Reifnitz
N: Slowenische Fassung der Ballade.
R: Ballade, mythologisch, Vertreibung
M: 2/4
L: 1/16
K: G
 | D4G4 | B4A4 | c2A2G2GB | A6z2 |
D4G4 | B4A4 | c2A2G2GB | A6z2 |
F4FAdB | B4A2G2 | F4A4 | G6z2 |
F4FAdB | B4A2G2 | F4A4 | G6z2

@@@ Tune index: 1319
